src/Pure/16/symbolic/actions/system-lock-screen-symbolic.svg

<svg width="16" height="16" version="1.1" xmlns="http://www.w3.org/2000/svg">
 <path d="m8 0c-2.216 0-4 1.784-4 4v2h1v-2c0-1.662 1.338-3 3-3s3 1.338 3 3v2h1v-2c0-2.216-1.784-4-4-4z" fill="#363636"/>
 <path d="m4 6c-1.108 0-2 0.892-2 2v5c0 1.108 0.892 2 2 2h8c1.108 0 2-0.892 2-2v-5c0-1.108-0.892-2-2-2zm0 1h8c0.554 0 1 0.446 1 1v5c0 0.554-0.446 1-1 1h-8c-0.554 0-1-0.446-1-1v-5c0-0.554 0.446-1 1-1z" fill="#363636"/>
</svg>

<?xml version="1.0" encoding="UTF-8" standalone="no"?>
<svg
   width="16"
   height="16"
   version="1.1"
   id="svg2"
   sodipodi:docname="system-lock-screen-symbolic.svg"
   inkscape:version="1.4.2 (ebf0e940d0, 2025-05-08)"
   xmlns:inkscape="http://www.inkscape.org/namespaces/inkscape"
   xmlns:sodipodi="http://sodipodi.sourceforge.net/DTD/sodipodi-0.dtd"
   xmlns="http://www.w3.org/2000/svg"
   xmlns:svg="http://www.w3.org/2000/svg">
  <defs
     id="defs2">
     <style
        id="current-color-scheme"
        type="text/css">
        .ColorScheme-Text { color:#363636; }
     </style>
  </defs>
  <sodipodi:namedview
     id="namedview2"
     pagecolor="#ffffff"
     bordercolor="#000000"
     borderopacity="0.25"
     inkscape:showpageshadow="2"
     inkscape:pageopacity="0.0"
     inkscape:pagecheckerboard="0"
     inkscape:deskcolor="#d1d1d1"
     inkscape:zoom="49.6875"
     inkscape:cx="8"
     inkscape:cy="8"
     inkscape:window-width="1920"
     inkscape:window-height="1010"
     inkscape:window-x="0"
     inkscape:window-y="0"
     inkscape:window-maximized="1"
     inkscape:current-layer="svg2" />
  <path
     id="path1"
     style="fill:currentColor"
     class="ColorScheme-Text"
     d="M 8 0 C 5.784 0 4 1.784 4 4 L 4 6 C 2.892 6 2 6.892 2 8 L 2 13 C 2 14.108 2.892 15 4 15 L 12 15 C 13.108 15 14 14.108 14 13 L 14 8 C 14 6.892 13.108 6 12 6 L 12 4 C 12 1.784 10.216 0 8 0 z M 8 1 C 9.662 1 11 2.338 11 4 L 11 6 L 5 6 L 5 4 C 5 2.338 6.338 1 8 1 z M 4 7 L 12 7 C 12.554 7 13 7.446 13 8 L 13 13 C 13 13.554 12.554 14 12 14 L 4 14 C 3.446 14 3 13.554 3 13 L 3 8 C 3 7.446 3.446 7 4 7 z " />
</svg>
